X:2893
T:Charlie O'Neill's
T:Donegal Highland
R:highland
D:Altan: Island Angel
Z:id:hn-hf-12
M:C|
K:G
A|:BEBE cAcA|~B3d cAFA|BEBE cBcB|1 Addc BGGA:|2 Addc BGBd||
g2fg ~B3A|Gaag fdef|g2fg ~B3A|GBdc BGBd|
g2fg ~B3A|Gaag fdcA|GBdB cdef|gbaf ~g3||


